X: 30752
T: Oró Sé Do Bheath Abhaile
R: polka
M: 2/4
K: Gmixolydian
A2 AG/A/|BA GE|G2 GG/G/|GD EG|
A2 AG/A/|BA Bd|eB dB|A2 A2:|

